public/style/workarea/images/icons/exe-edit-icon.svg

<svg fill="none" height="25" viewBox="0 0 24 25" width="24" xmlns="http://www.w3.org/2000/svg"><path d="m17 3.48639c.2626-.26265.5744-.47099.9176-.61313s.711-.2153 1.0824-.2153.7392.07316 1.0824.2153.655.35048.9176.61313c.2626.26264.471.57444.6131.9176.1422.34316.2153.71096.2153 1.0824 0 .37143-.0731.73923-.2153 1.08239-.1421.34316-.3505.65496-.6131.91761l-13.5 13.50001-5.5 1.5 1.5-5.5z" stroke="#6b7280" stroke-linecap="round" stroke-linejoin="round" stroke-width="2"/></svg>

<svg width="24" height="25" viewBox="0 0 24 25" fill="none" xmlns="http://www.w3.org/2000/svg">
<path d="M17 3.48639C17.2626 3.22374 17.5744 3.0154 17.9176 2.87326C18.2608 2.73112 18.6286 2.65796 19 2.65796C19.3714 2.65796 19.7392 2.73112 20.0824 2.87326C20.4256 3.0154 20.7374 3.22374 21 3.48639C21.2626 3.74903 21.471 4.06083 21.6131 4.40399C21.7553 4.74715 21.8284 5.11495 21.8284 5.48639C21.8284 5.85782 21.7553 6.22562 21.6131 6.56878C21.471 6.91194 21.2626 7.22374 21 7.48639L7.5 20.9864L2 22.4864L3.5 16.9864L17 3.48639Z" stroke="#6B7280" stroke-width="2" stroke-linecap="round" stroke-linejoin="round"/>
</svg>
